X:30
T:Baile Nan Granndach
R:Slow Strathspey
B:The Athole Collection
M:C|
L:1/8
Q:1/4=140
K:D
B|A<D A>F A<D A>F|A<D A>F B<E E>F|A<D A>F d>ef>e|
d>B A/B/d/F/ A<DD:|
|:f|d>BA>F d>ef>e|d>BA>F e<E E>e|d>BA>F d>ef>e|d>B A/B/d/F/ A>DD:|
|:B|A<D AG/F/ A<D AG/F/|A<D AG/F/ B<E E>F|A<D AG/F/ d>ef>e|
d>B A/B/d/F/ A<D D:|
|:f|d>fA>f d>fA>f|d>fA>f e<E E>e|d>fA>f d>ef>e|d>B A/B/d/F/ A>DD:|
|:F|A,>D FE/D/ A<D FE/D/|A,>D FE/D/ B<E E>F|A,>D FE/D/ A>D FE/D/|
d>B A/B/d/F/ A<D D:|
|:f/g/|a>ba>f d>ef>d|e<f d>f e<E E>f|a>b a/b/a/f/ d>ef>e|d>B A/B/d/F/ A<D D:|

